X:1
T: The Dry-stane Dyker
C:C Sherrit
R:Jig
Q:180
K:A
M:6/8
L:1/16
c2|:e2f2e2 c2B2A2|B2c2B2 G2F2E2|F4D2 A,2D2F2|E6 E2A2G2|
|1F2=F2^F2 A2G2F2|E2A2c2 e4c2|B4e2 ^d4f2|g2f2e2 d2c2d2:|
|2F2=F2^F2 A2G2F2|E2^D2E2 c2B2A2|G4d2 c4B2|A6 A2d2e2|
|:f6 f2=f2^f2|d2A2d2 f2e2d2|e6 e2^d2e2|c2A2c2 e2d2c2|
|1d6 B4G2|E2G2B2 f2e2d2|c4e2 d4=f2|e6 c2d2e2:|
|2d4B2 G4F2|E2^D2E2 G4F2|E4d2 c4B2|A6 A4||
